X:1
T:I Know Whom I Have Believed
T:I Know Whom I Have Believed
T:James McGrahanan
T:Daniel Webster Whittle, 1883
T:Public Domain Courtesy of the Cyber Hymnal™
C:James McGrahanan
Z:Public Domain
Z:Courtesy of the Cyber Hymnal™
%%score ( 1 2 ) ( 3 4 )
L:1/8
Q:1/4=110
M:4/4
K:D
V:1 treble 
V:2 treble 
V:3 bass 
V:4 bass 
V:1
 D2 | [DF]3 [DF] (GF) (ED) | [DB]2 [DA]2 [DA]2 [DF]2 | [FA]3 [FA] ([GB][FA]) ([EG][DF]) | %4
w: 1.~I|know not why * God’s *|wond- rous grace To|me He hath * made *|
w: 2.~I|know not how * this *|sav- ing faith To|me He did * im- *|
w: 3.~I|know not how * the *|Spir- it moves, Con-|vinc- ing us * of *|
w: 4.~I|know not when * my *|Lord may come, At|night or noon- * day *|
 [CE]6 [EG]2 | [DF]3 [DF] (GF) (ED) | [DB]2 [DA]2 [DA]2 [DF]2 | [CA]3 [CA] (BA) (GE) | D6 || %9
w: known, Nor|why, un- wor- * thy, *|Christ in love Re-|deemed me for * His *|own.|
w: part, Nor|how be- liev- * ing *|in His Word Wrought|peace with- in * my *|heart.|
w: sin, Re-|veal- ing Je- * sus *|through the Word, Cre-|a- ting faith * in *|Him.|
w: fair, Nor|if I walk * the *|vale with Him, Or|meet Him in * the *|air.|
"^Refrain" DD | [Bd]2 [Bd]3 [Bd][Ac][GB] | [GB]2 [FA]3 [FA][GB][FA] | [FA]2 [EG]3 [EG][FA][EG] | %13
w: ||||
w: ||||
w: ||||
w: ||||
 [EG]2 [DF]4 D2 | [Bd]2 [Bd]3 [Bd][Ac][GB] | [GB]2 [FA]4 [FA][FA] | [Ec]3 [GB] [Gc]2 [GA]2 | %17
w: ||||
w: ||||
w: ||||
w: ||||
 [Fd]6 |] %18
w: |
w: |
w: |
w: |
V:2
 D2 | x4 D2 A,2 | x8 | x8 | x8 | x4 D2 A,2 | x8 | x4 C2 C2 | D6 || DD | x8 | x8 | x8 | x6 D2 | x8 | %15
 x8 | x8 | x6 |] %18
V:3
 [D,F,]2 | [D,A,]3 [D,A,] (B,A,) (G,F,) | [D,G,]2 [D,F,]2 [D,F,]2 [D,A,]2 | %3
w: ~|~ ~ ~ * ~ *|~ ~ ~ ~|
 [D,D]3 [D,D] [D,D]2 A,2 | [A,,A,]6 [C,A,]2 | [D,A,]3 [D,A,] (A,G,) (G,F,) | %6
w: ~ ~ ~ ~|~ ~|~ ~ ~ * ~ *|
 [D,G,]2 [D,F,]2 [D,F,]2 [D,A,]2 | [A,,A,]3 [A,,E,] [A,,E,]2 (E,G,) | [D,F,]6 || D,D, | %10
w: ~ ~ ~ ~|~ ~ ~ ~ *|~|But I|
 [G,D]2 [G,D]3 [G,D][G,D][G,D] | [D,D]2 [D,D]3 [D,D][D,D][D,D] | %12
w: know whom I have be-|liev- èd, And am per-|
 [A,,C]2 [A,,C]3 [A,,C][A,,C][A,,C] | [D,D]2 [D,A,]4 D,2 | [G,D]2 [G,D]3 [G,D][G,D][G,D] | %15
w: suad- ed that He is|a- ble To|keep that which I’ve com-|
 [D,D]2 [D,D]4 [D,A,][D,A,] | [A,,A,]3 [A,,A,] A,2 [C,A,]2 | [D,A,]6 |] %18
w: mit- ted Un- to|Him a- gainst that|day.|
V:4
 x2 | x4 D,2 D,2 | x8 | x6 (C,D,) | x8 | x4 D,2 D,2 | x8 | x6 A,,2 | x6 || D,D, | x8 | x8 | x8 | %13
 x6 D,2 | x8 | x8 | x4 (A,,B,,) x2 | x6 |] %18

